!!!OTL@@DE: L&uuml;tzows wilde Jagd
!!!COM: Weber, Carl Maria von
!!!ODT: 1814
!!!OMD: Allegro molto
!!!LYR: K&ouml;rner
!!!LDT: 1813
!!!OCL: Erk, Ludwig
!!!GCO: Deutscher Liederschatz, Band 1
**kern	**kern	**kern
*staff3	*staff2	*staff1
*Ipiano	*Ipiano	*Ivox
*>[A,B,B]	*>[A,B,B]	*>[A,B,B]
*>norep[A,B]	*>norep[A,B]	*>norep[A,B]
*>A	*>A	*>A
*clefF4	*clefG2	*clefG2
*k[b-e-]	*k[b-e-]	*k[b-e-]
*B-:	*B-:	*B-:
*M6/8	*M6/8	*M6/8
*MM120	*MM120	*MM120
8BB-\ 8B-\	8d/ 8f/	8f/
=1	=1	=1
8BB-\ 8B-\L	8d/ 8f/L	8f/
8BB-\ 8B-\	8d/ 8f/	8f/
8BB-\ 8B-\J	8d/ 8f/J	8f/
8BB-\ 8B-\L	8d/ 8f/L	8f/
8BB-\ 8B-\	8d/	8d/
8BB-\ 8B-\J	8d/ 8f/J	8f/
=2	=2	=2
*	*^	*
4BB-\ 4B-\	(8f/L	4d\	8f/L
.	8b-/)	.	8b-/J
8BB-\ 8B-\	8f/J	8d\	8f/
*	*v	*v	*
4BB-\ 4B-\	4d/ 4f/	4f/
8BB-\ 8B-\	8d/ 8f/ 8b-/	8b-/
=3	=3	=3
8BB-\ 8B-\L	8d/ 8f/ 8b-/L	8b-/
8BB-\ 8B-\	8d/ 8f/ 8b-/	8b-/
8BB-\ 8B-\J	8d/ 8f/ 8b-/J	8b-/
*	*^	*
4BB-\ 4B-\	(8b-/L	4d\	8b-/L
.	8f/)	.	8f/J
8BB-\ 8B-\	8b-/J	8d\	8b-\
*	*v	*v	*
=4	=4	=4
2.B-\ 2.d\	2.f/ 2.b-/ 2.dd/	2.dd\
=5	=5	=5
4.BB-\ 4.B-\	4.d/ 4.f/ 4.b-/	4.b-\
4r	4r	4r
8E-\	8e-/	8e-/
=6	=6	=6
8E-\L	8e-/L	8e-/
8E-\	8e-/	8e-/
8E-\J	8e-/J	8e-/
8E-\L	8e-/L	8e-/
8E-\	8e-/	8e-/
8E-\ 8B-\J	8e-/ 8g/J	8g/
=7	=7	=7
8.E-^\ 8.c-^\L	8.e-/ 8.a-/L	8.a-^/
16E-\ 16c-\k	16e-/ 16a-/k	16a-/
8E-\ 8c-\J	8e-/ 8a-/J	8a-/
4E-\ 4B-\	4e-/ 4g/	4g/
8E-\ 8e-\	8g/ 8b-/	8b-/
=8	=8	=8
8E-\ 8e-\L	8g/ 8b-/L	8b-/
8E-\ 8e-\	8g/ 8b-/	8b-/
8E-\ 8e-\J	8g/ 8b-/J	8b-/
8E-\ 8e-\L	8g/ 8b-/L	8b-/L
8E-\ 8B-\	8e-/ 8g/	8g/J
8E-\ 8e-\J	8g/ 8b-/J	8b-/
=9	=9	=9
8E-\ 8e-\L	8g\ 8b-\L	8b-/L
8E-\ 8B-\	8g\ 8ee-\	8ee-/J
8E-\ 8e-\J	8g\ 8b-\J	8b-\
4E-\ 4e-\	4g/ 4b-/	4b-\
8E-\ 8e-\	8g/ 8b-/	8b-/
=10	=10	=10
8F\ 8d\L	8f/ 8b-/L	8b-\
8F\ 8d\	8f/ 8b-/	8b-\
8F\ 8d\J	8f/ 8b-/J	8b-\
8G\ 8d-\L	8en/ 8b-/L	8b-\
8G\ 8d-\	8e/ 8b-/	8b-\
8G\ 8d-\J	8e/ 8b-/J	8b-\
=11	=11	=11
4.F\ 4.c\	4.f/ 4.an/	4.an/
4F\ 4c\	4a/ 4cc/	4cc\
8r	8r	8r
=12	=12	=12
4r	4r	4r
8r	8r	8r
4r	4r	4r
8F\	8f/	8f/
=13	=13	=13
4.F\	4.f/	4.f/
4F\	4f/	4f/
8F\	8f/	8f/
=14	=14	=14
8G-\L	8g-^/L	8g-^/
8F\	8f/	8f/
8En\J	8en/J	8en/
4F\	4f/	4f/
8A\	8a/	8a/
=15	=15	=15
4.c\	4.cc\	4.cc\
4r	4r	4r
8r	8r	8r
=16!|:	=16!|:	=16!|:
*>B	*>B	*>B
2.BB-\ 2.B-\	2.r	2.b-\
=17	=17	=17
2.BB-\ 2.B-\	2.r	2.b-\
=18	=18	=18
4.BBB-/ 4.BB-/	4.f/ 4.b-/ 4.dd/	4.dd^\
4.BBB-/ 4.BB-/	4.f/ 4.b-/ 4.dd/	4.dd^\
=19	=19	=19
4.BB-\ 4.B-\	4.f\ 4.dd\ 4.ff\	4.ff^\
4.BBB-/ 4.BB-/	4.f/ 4.b-/ 4.dd/	4.dd\
=20	=20	=20
8FF/ 8F/L	8f/ 8a/ 8cc/L	8cc\
8FF/ 8F/	8f/ 8a/ 8cc/	8cc\
8FF/ 8F/J	8f/ 8a/ 8cc/J	8cc\
8FF/ 8F/L	8f/ 8a/ 8cc/L	8cc\
8FF/ 8F/	8d/ 8f/ 8b-/	8b-\
8FF/ 8F/J	8f/ 8a/ 8cc/J	8cc\
=21	=21	=21
[4.BB-\ [4.F\ [4.B-\	[4.f/ [4.b-/ [4.dd/	[4.dd\
4BB-\] 4F\] 4B-\]	4f/] 4b-/] 4dd/]	4dd\]
==:|!	==:|!	==:|!
*-	*-	*-
!!!ENC: Craig Stuart Sapp
!!!END: 2004/06/28/
!!!EFL: 164/651
